X:1
T:Adoramus te, Christe
T:Orlando di Lasso (1530/32-1594) ed., Gary Harney
T:Adoramus te, Christe
T:Copyright © 2019 by the Choral Public Domain Library (http://www.cpdl.org) Edition may be freely distributed, duplicated, performed, or recorded.
T:Copyright © 2019 by the Choral Public Domain Library (http://www.cpdl.org) Edition may be freely distributed, duplicated, performed, or recorded.
T:Copyright © 2019 by the Choral Public Domain Library (http://www.cpdl.org) Edition may be freely distributed, duplicated, performed, or recorded.
C:Orlando di Lasso
C:(1530/32-1594)
C:ed., Gary Harney
Z:Copyright © 2019 by the Choral Public Domain Library (http://www.cpdl.org)
Z:Edition may be freely distributed, duplicated, performed, or recorded.
%%score [ 1 2 3 4 ]
L:1/8
M:4/4
K:Bb
V:1 treble nm="Soprano" snm="S."
V:2 treble nm="Alto" snm="A."
V:3 treble-8 transpose=-12 nm="Tenor" snm="T."
V:4 bass nm="Bass" snm="B."
V:1
 z8 | B6 B2 | B4 B2 c2- | c2 B4 A2- | AG G3 ^F/=E/ F2 | G4 G4 | A2 B2 c4 | c2 c3 B BA/G/ | F4 F4- | %9
w: |Ad- o-|ra- mus te,|_ Chri- *||ste et|be- ne- di-|ci- mus _ _ _ _|_ ti-|
 F4 F4 | G8 | F8- | F4 z2 B2 | A2 B2 F4 | F3 G A3 B | cG _A2 GC c2- | c=B/=A/ B2 c2 G2 | %17
w: * bi.|qui-|a|_ per|tu- am san-|ctam _ _ _|_ _ _ cru- * *|* * * * cem re-|
 A2 _B3 A/G/ A2 | B2 A4 G2- | G^F/=E/ F2 G4 | z2 G4 G2 | G4 A4 | B2 c4 B2 | =A3 G/F/ G4 | %24
w: de- mi- * * *|sti mun- *|* * * * dum.|Do- mi-|ne, mi-|se- re- re|no- * * *|
 A2 A2 B2 c2- | c2 B2 A3 G/F/ | G4 A4 | d6 c2 | B2 A2 B4 | A8 |] %30
w: bis, mi- se- re-|* re no- * *|* bis,|mi- se-|re- re no-|bis.|
V:2
 F6 F2 | F8 | G8 | G4 F4 | E2 DC D4 | =E4 E4 | F4 _A4 | G3 G G3 F/_E/ | D4 C4- | C4 D4 | E4 B4- | %11
w: Ad- o-|ra-|mus|te, _|Chri- * * *|ste et|be- ne-|di- ci- mus _ _|_ ti-|* bi.|qui- a|
 B4 z2 B2 | A2 B2 F4- | F2 G2 z2 B2 | A2 B2 F4 | G2 z F =E2 F2 | G2 G2 =E4 | F4 F4- | F2 F2 F2 D2 | %19
w: _ per|tu- am san-|* ctam, per|tu- am san-|ctam, per tu- am|san- ctam cru-|cem re-|* de- mi- sti|
 D4 D4- | D4 =E4- | E2 =E2 F2 F2 | G2 _A4 G2- | GF F4 =E2 | F2 F2 G2 _A2- | A2 G3 F F2- | %26
w: mun- dum.|_ Do-|* mi- ne, mi-|se- re- re|_ _ no- *|bis, mi- se- re-|* re _ no-|
 F2 =E2 F2 F2- | F2 F2 F4 | F4 F4 | F8 |] %30
w: * * bis, mi-|* se- re-|re no-|bis.|
V:3
 z4 d4- | d2 d2 d4- | d2 d2 e4 | d4 d3 c | B2 AG A4 | c4 z2 c2- | c2 d2 e2 f2- | f2 e2 d4 | %8
w: Ad-|* o- ra-|* mus te,|_ Chri- *||ste et|_ be- ne- di-|* ci- mus|
 z2 B4 AG | A4 B4- | B2 B4 e2- | e2 dc d4 | d4 c2 d2 | c2 e2 d3 c/B/ | c2 d2 d2 c2- | c2 c2 c2 c2 | %16
w: ti- * *|* bi.|_ qui- a|_ _ _ _|per tu- am|san- ctam cru- * *|* cem, per tu-|* am san- ctam|
 d4 c2 c2- | c2 d2 c4 | d4 B4 | A4 =B4- | B4 c4- | c2 c2 c4 | _e3 e e2 e2 | c8 | c4 _e3 e | %25
w: cru- cem re-|* de- mi-|sti mun-|* dum.|_ Do-|* mi- ne,|mi- se- re- re|no-|bis, mi- se-|
 e2 e2 c4- | c4 c4 | B6 c2 | d2 c2 d4 | c8 |] %30
w: re- re no-|* bis,|mi- se-|re- re no-|bis.|
V:4
 z4 B,4- | B,2 B,2 B,3 A, | G,3 F, E,D, C,2 | G,4 D,4 | E,4 D,4 | C,4 C4 | F,2 B,2 _A,2 F,2 | %7
w: Ad-|* o- ra- *||mus te,|Chri- *|ste et|be- ne- di- ci-|
 C4 G,3 =A, | B,4 F,4- | F,4 z4 | E,8 | B,8 | z2 B,2 A,2 B,2 | F,2 E,2 B,3 A,/G,/ | %14
w: mus ti- *|* bi.|_|qui-|a|per tu- am|san- ctam cru- * *|
 F,2 B,,2 z2 F,2 | =E,2 F,2 C,2 _A,2 | G,4 C,4 | F,4 F,4 | D,4 D,4 | D,4 G,4- | G,4 C,4- | %21
w: * cem, per|tu- am san- ctam|cru- cem|re- de-|mi- sti|mun- dum.|_ Do-|
 C,2 C,2 F,2 F,2 | _E,2 _A,4 E,2 | F,3 =E,/D,/ C,4 | F,2 F,2 _E,2 _A,2- | A,2 E,2 F,3 =E,/D,/ | %26
w: * mi- ne, mi-|se- re- re|no- * * *|bis, mi- se- re-|* re no- * *|
 C,4 F,4 | z2 B,,4 A,,2 | B,,2 F,2 B,4 | F,8 |] %30
w: * bis,|mi- se-|re- re no-|bis.|

